azure-patterns/svg-square-gear-diamond-merge.svg

<svg xmlns="http://www.w3.org/2000/svg" viewBox="0 0 49 49">
                                
                            
	<path d="M48.3091 22.7628L43.2664 17.7102V21.5333H30.7437V3.88281H9.64844V6.40913H28.2224V21.5333H10.5729V24.0597H28.2224V41.6597H9.64844V44.186H30.7437V24.0597H43.2664V27.8239L48.3091 22.7628Z" fill="#50E6FF"></path>
	<path d="M15.2195 23.4209V21.8545H13.6058C13.4713 20.8187 13.0595 19.8672 12.4544 19.084L13.5974 17.9388L12.4964 16.8356L11.3534 17.9809C10.5634 17.3745 9.61367 16.9703 8.58832 16.8272V15.2188H7.03349V16.8356C5.99974 16.9703 5.05003 17.383 4.26841 17.9893L3.1254 16.844L2.01601 17.9472L3.15902 19.084C2.55389 19.8756 2.15048 20.8272 2.0076 21.8545H0.402344V23.4209H2.01601C2.15048 24.4566 2.55389 25.4082 3.15902 26.1914L2.01601 27.3366L3.117 28.4398L4.26001 27.2945C5.05003 27.9009 5.99974 28.3051 7.02509 28.4482V30.0651H8.58832V28.4482C9.62208 28.3135 10.5718 27.9009 11.3534 27.2945L12.4964 28.4398L13.5974 27.3366L12.4544 26.1914C13.0595 25.3998 13.4629 24.4482 13.6058 23.4209H15.2195ZM7.81511 25.4588C6.26868 25.4588 5.00801 24.1956 5.00801 22.6461C5.00801 21.0966 6.26868 19.8335 7.81511 19.8335C9.36154 19.8335 10.6222 21.0966 10.6222 22.6461C10.6222 24.1956 9.36154 25.4588 7.81511 25.4588Z" fill="#0078D4"></path>
	<path d="M14.278 0.078125H1.67969V12.7013H14.278V0.078125Z" fill="#0078D4"></path>
	<path d="M15.6644 39.5585L7.98633 31.8652L0.308208 39.5585L7.98633 47.2517L15.6644 39.5585Z" fill="#0078D4"></path>
</svg>

<svg xmlns="http://www.w3.org/2000/svg" viewBox="0 0 49 49"><path d="M48.31 22.763l-5.044-5.053v3.823H30.744V3.883H9.648v2.526h18.574v15.124h-17.65v2.527h17.65v17.6H9.648v2.526h21.096V24.06h12.522v3.764l5.043-5.061z" fill="#50E6FF"/><path d="M15.22 23.42v-1.566h-1.614a5.744 5.744 0 0 0-1.152-2.77l1.143-1.145-1.1-1.103-1.144 1.145a5.87 5.87 0 0 0-2.765-1.154V15.22H7.033v1.617a5.72 5.72 0 0 0-2.765 1.153l-1.143-1.145-1.109 1.103 1.143 1.137a5.897 5.897 0 0 0-1.151 2.77H.402v1.567h1.614a5.733 5.733 0 0 0 1.143 2.77l-1.143 1.146 1.101 1.103 1.143-1.146c.79.607 1.74 1.011 2.765 1.154v1.617h1.563v-1.617a5.719 5.719 0 0 0 2.765-1.154l1.143 1.146 1.101-1.103-1.143-1.146a5.897 5.897 0 0 0 1.152-2.77h1.614zM7.814 25.46a2.815 2.815 0 0 1-2.807-2.813c0-1.55 1.26-2.813 2.807-2.813a2.815 2.815 0 0 1 2.807 2.813c0 1.55-1.26 2.813-2.807 2.813zM14.278.078H1.68v12.623h12.598V.078zM15.664 39.559l-7.678-7.694L.308 39.56l7.678 7.693 7.678-7.694z" fill="#0078D4"/></svg>
